common/svg/apple-app-store-icon.svg

<svg fill="none" height="20" viewBox="0 0 20 20" width="20" xmlns="http://www.w3.org/2000/svg" xmlns:xlink="http://www.w3.org/1999/xlink"><clipPath id="a"><path d="m0 0h20v20h-20z"/></clipPath><g clip-path="url(#a)" clip-rule="evenodd" fill="#000" fill-rule="evenodd"><path d="m13.0298 3.20167c.4428-.76474.1817-1.7436-.583-2.18634-.7647-.442747-1.7436-.181718-2.1863.58302l-7.48239 12.92405h3.6976zm-7.49798 12.95113c-.68098-.5845-1.41717-1.1316-2.05294-1.1568-.92769-.0369-1.23693.4461-1.46957.8795l-.00865-.0102-.5402.9331c-.44275.7647-.18172 1.7435.58302 2.1863.76474.4427 1.7436.1817 2.18634-.583z"/><path d="m9.71766 11.3224c.68684.0073 1.39434.0763 1.83344.7264.4823.7139.5185 1.6325.3371 2.4736h-10.2882c-.883656 0-1.6-.7164-1.6-1.6 0-.8837.716344-1.6 1.6-1.6zm3.95934 3.2h4.723c.8837 0 1.6-.7164 1.6-1.6 0-.8837-.7163-1.6-1.6-1.6h-6.5874z"/><path d="m7.04743 3.20167c-.44274-.76474-.18171-1.7436.58303-2.18634.76473-.442747 1.74359-.181718 2.18634.58302l2.0532 3.54647-1.90137 3.10256zm4.24867 7.33863 4.5513 7.8614c.4428.7647 1.4216 1.0257 2.1864.583.7647-.4428 1.0257-1.4216.583-2.1863l-6.1609-10.64154c-.3947.05257-.7505.28319-1.0245.83126-.7842 1.56849-.4332 2.89857-.1327 3.55268z"/></g></svg>

<svg width="20" height="20" viewBox="0 0 20 20" fill="none" xmlns="http://www.w3.org/2000/svg">
<g clip-path="url(#clip0)">
<path fill-rule="evenodd" clip-rule="evenodd" d="M13.0298 3.20167C13.4726 2.43693 13.2115 1.45807 12.4468 1.01533C11.6821 0.572583 10.7032 0.833612 10.2605 1.59835L2.77811 14.5224H6.47571L13.0298 3.20167ZM5.53182 16.1528C4.85084 15.5683 4.11465 15.0212 3.47888 14.996C2.55119 14.9591 2.24195 15.4421 2.00931 15.8755L2.00066 15.8653L1.46046 16.7984C1.01771 17.5631 1.27874 18.5419 2.04348 18.9847C2.80822 19.4274 3.78708 19.1664 4.22982 18.4017L5.53182 16.1528Z" fill="black"/>
<path fill-rule="evenodd" clip-rule="evenodd" d="M9.71766 11.3224C10.4045 11.3297 11.112 11.3987 11.5511 12.0488C12.0334 12.7627 12.0696 13.6813 11.8882 14.5224H1.6C0.716344 14.5224 0 13.806 0 12.9224C0 12.0387 0.716344 11.3224 1.6 11.3224H9.71766ZM13.677 14.5224H18.4C19.2837 14.5224 20 13.806 20 12.9224C20 12.0387 19.2837 11.3224 18.4 11.3224H11.8126L13.677 14.5224Z" fill="black"/>
<path fill-rule="evenodd" clip-rule="evenodd" d="M7.04743 3.20167C6.60469 2.43693 6.86572 1.45807 7.63046 1.01533C8.39519 0.572583 9.37405 0.833612 9.8168 1.59835L11.87 5.14482L9.96863 8.24738L7.04743 3.20167ZM11.2961 10.5403L15.8474 18.4017C16.2902 19.1664 17.269 19.4274 18.0338 18.9847C18.7985 18.5419 19.0595 17.5631 18.6168 16.7984L12.4559 6.15686C12.0612 6.20943 11.7054 6.44005 11.4314 6.98812C10.6472 8.55661 10.9982 9.88669 11.2987 10.5408L11.2961 10.5403Z" fill="black"/>
</g>
<defs>
<clipPath id="clip0">
<rect width="20" height="20" fill="white"/>
</clipPath>
</defs>
</svg>
